X:334
T:Full Fellowship
M:C|
C:© Paul Gitlitz, 2012
K:A
GF|:"A"EABd "F#m"cBAF|"A/E"EABc "D"d2cd|fede "A"ceBG|ABcA "F#m"F2GF|!
"A"EABd "F#m"cBAF|"E"GABc "D"d2cd|"A"eAdA "C#m"cABA|1"E"GABc "A"A2GF:|2"E"GABc "A"A2AB|!
|:"A"cAeA aAga|"F#m"fgae "E"B2cB|"A"Acec "F#m"fcec|"A"agfg "E"e2 EG|!
"A"AGAc "E"BGBd|"F#m"cdeg "D"a2gf|"A"eAdA "C#m"cABA|1"E"GABc "A"A2AB:|2"E"GABc "A"A4|]
